X:1
T:Seraphim, 87.87 D
T:Seraphim, 87.87 D
T:Gerhard Theodore Alexis (1889-1927)
T:Public Domain Courtesy of the Cyber Hymnal™
C:Gerhard Theodore Alexis (1889-1927)
Z:Public Domain
Z:Courtesy of the Cyber Hymnal™
%%score ( 1 2 ) ( 3 4 )
L:1/8
Q:1/4=112
M:4/4
K:Eb
V:1 treble 
V:2 treble 
V:3 bass 
V:4 bass 
V:1
 [EG]3 [DF] E2 [DA]2 | [EG]2 E2 [EG]2 [DF]2 | [EB]2 [FB]2 [Ec]2 [EB]2 | [EA]2 [EG]2 [DF]4 | %4
 [EG]3 [DF] E2 [DA]2 | [EG]2 E2 [EG]2 [DF]2 | [EG]2 [F=A]2 [FB]2 [Ee]2 | [Fd]2 [Ec]2 [DB]4 | %8
 [EB]3 [FB] [=Ec]2 [GB]2 | [FA]2 [F=A]2 [FB]2 [F_A]2 | [EG]2 [FG]2 [EG]3 [DG] | [CE]2 [DF]2 [DG]4 | %12
 [EB]3 [DA] [EG]2 [EB]2 | [EA]2 [EG]2 [EG]2 [EF]2 | [DF]2 [EG]2 [CA]3 [CF] | %15
 [B,E]2 [B,D]2 [B,E]4 |] %16
V:2
 x4 E2 x2 | x2 E2 x4 | x8 | x8 | x4 E2 x2 | x2 E2 x4 | x8 | x8 | x8 | x8 | x8 | x8 | x8 | x8 | x8 | %15
 x8 |] %16
V:3
 [E,B,]3 [A,B,] [G,B,]2 [F,B,]2 | [E,B,]2 [G,B,]2 B,2 B,2 | [G,B,]2 [D,F,]2 [C,G,]2 [G,,B,]2 | %3
 [A,,C]2 [E,B,]2 [B,,B,]4 | [E,B,]3 [A,B,] [G,B,]2 [F,B,]2 | [E,B,]2 [G,B,]2 B,2 B,2 | %6
 [E,B,]2 [E,C]2 [D,B,]2 [C,C]2 | [F,B,]2 [F,=A,]2 [B,,B,]4 | [E,G,]3 [_D,G,] [C,G,]2 [=E,C]2 | %9
 [F,C]2 [E,C]2 [D,B,]2 [D,B,]2 | [E,B,]2 [D,=B,]2 [C,C]3 [G,B,] | [A,C]2 [A,C]2 [G,=B,]4 | %12
 [G,B,]3 [F,B,] [E,B,]2 [_D,G,]2 | [C,A,]2 [B,,B,]2 [A,,C]2 [A,,C]2 | %14
 [A,,B,]2 [G,,B,]2 [F,,A,]3 [A,,A,] | [B,,G,]2 [B,,A,]2 [E,G,]4 |] %16
V:4
 x8 | x4 B,2 B,2 | x8 | x8 | x8 | x4 B,2 B,2 | x8 | x8 | x8 | x8 | x8 | x8 | x8 | x8 | x8 | x8 |] %16

